build/img/tg.svg

<svg width="32" height="28" viewBox="0 0 32 28" fill="none" xmlns="http://www.w3.org/2000/svg">
<path d="M7.59082 16.0314L11.563 26.1124L16.7349 20.8619L25.5808 28L32 0L0 13.0373L7.59082 16.0314ZM5.09497 13.0088L20.3479 6.79435L8.21826 14.2408L5.09497 13.0088ZM23.0659 7.34605L12.9421 16.7482L11.7244 21.4069L9.47217 15.6912L23.0659 7.34605ZM13.7002 21.2557L14.3137 18.9084L15.2603 19.672L13.7002 21.2557ZM24.4287 24.6435L15.217 17.2104L29.0859 4.33006L24.4287 24.6435Z" fill="#9D9EBF"/>
</svg>

<svg width="32" height="28" fill="none" xmlns="http://www.w3.org/2000/svg"><path d="M7.59 16.031l3.973 10.081 5.172-5.25L25.58 28 32 0 0 13.037l7.59 2.994zM5.096 13.01l15.253-6.215-12.13 7.447-3.123-1.232zm17.97-5.663l-10.123 9.402-1.218 4.659-2.252-5.716 13.594-8.345zM13.7 21.256l.614-2.348.946.764-1.56 1.584zm10.729 3.387l-9.212-7.433L29.086 4.33l-4.657 20.313z" fill="#9D9EBF"/></svg>
